X: 4
T:Schottis frn Geta (land)
S:(efter Anders Stenmark, Bjrk)
A:land
O:Finland
M:4/4
L:1/8
Q:1/4=170
K:G
K:G
g|"G"b>agf "C"a>gfe|"G"d2dB G2Bd|"D7"d>ccA F2FD|"G"G2GB d3g|\
"G"b>agf "C"a>gfe|"G"d2dB G2Bd|"D7"d>ccA F2FD|[1"G"G2B2 G3:|\
[2"G"G2B2 G3A|:\
K:D
"D"d3e f2b2|"A"a2ge c4|"A7"A2cd e2a2|"D"f>aga f2A2|\
"D"d3e f2b2|"A"a2ge c4|"A7"A2ce g>ece|[1"D"d2d2 d3A:|[2"D"d2d2 d3|]
